Numix-Circle/48x48/apps/digikam.svg

<?xml version="1.0" encoding="UTF-8" standalone="no"?>
<svg
   xmlns:dc="http://purl.org/dc/elements/1.1/"
   xmlns:cc="http://creativecommons.org/ns#"
   xmlns:rdf="http://www.w3.org/1999/02/22-rdf-syntax-ns#"
   xmlns:svg="http://www.w3.org/2000/svg"
   xmlns="http://www.w3.org/2000/svg"
   xmlns:xlink="http://www.w3.org/1999/xlink"
   xmlns:sodipodi="http://sodipodi.sourceforge.net/DTD/sodipodi-0.dtd"
   xmlns:inkscape="http://www.inkscape.org/namespaces/inkscape"
   viewBox="0 0 48 48"
   id="svg2"
   version="1.1"
   inkscape:version="0.91 r13725"
   width="100%"
   height="100%"
   sodipodi:docname="digikam-c.svg"
   inkscape:export-filename="/home/ismael/Imágenes/icons.png"
   inkscape:export-xdpi="245"
   inkscape:export-ydpi="245">
  <metadata
     id="metadata61">
    <rdf:RDF>
      <cc:Work
         rdf:about="">
        <dc:format>image/svg+xml</dc:format>
        <dc:type
           rdf:resource="http://purl.org/dc/dcmitype/StillImage" />
        <dc:title></dc:title>
      </cc:Work>
    </rdf:RDF>
  </metadata>
  <sodipodi:namedview
     pagecolor="#ffffff"
     bordercolor="#666666"
     borderopacity="1"
     objecttolerance="10"
     gridtolerance="10"
     guidetolerance="10"
     inkscape:pageopacity="0"
     inkscape:pageshadow="2"
     inkscape:window-width="1366"
     inkscape:window-height="713"
     id="namedview59"
     showgrid="false"
     inkscape:snap-bbox="true"
     inkscape:object-paths="true"
     inkscape:snap-intersection-paths="true"
     inkscape:object-nodes="false"
     inkscape:snap-smooth-nodes="false"
     inkscape:snap-midpoints="false"
     inkscape:snap-grids="true"
     inkscape:zoom="8"
     inkscape:cx="41.513936"
     inkscape:cy="25.085963"
     inkscape:window-x="0"
     inkscape:window-y="28"
     inkscape:window-maximized="1"
     inkscape:current-layer="svg2">
    <inkscape:grid
       type="xygrid"
       id="grid3038"
       empspacing="5"
       visible="true"
       enabled="true"
       snapvisiblegridlinesonly="true" />
  </sodipodi:namedview>
  <defs
     id="defs4">
    <linearGradient
       id="linearGradient3040">
      <stop
         style="stop-color:#ff8275;stop-opacity:1;"
         offset="0"
         id="stop3042" />
      <stop
         style="stop-color:#ff7061;stop-opacity:1;"
         offset="1"
         id="stop3044" />
    </linearGradient>
    <linearGradient
       inkscape:collect="always"
       xlink:href="#linearGradient3040"
       id="linearGradient3046"
       x1="24"
       y1="1"
       x2="24"
       y2="47"
       gradientUnits="userSpaceOnUse" />
    <clipPath
       id="clipPath-070777050">
      <g
         transform="translate(0,-1004.3622)"
         id="g3085">
        <path
           style="fill:#1890d0"
           inkscape:connector-curvature="0"
           d="m -24,13 c 0,1.105 -0.672,2 -1.5,2 -0.828,0 -1.5,-0.895 -1.5,-2 0,-1.105 0.672,-2 1.5,-2 0.828,0 1.5,0.895 1.5,2 z"
           transform="matrix(15.333333,0,0,11.5,414.99999,878.8622)"
           id="path3087" />
      </g>
    </clipPath>
    <radialGradient
       r="5.7119875"
       fy="33.305279"
       fx="24.475513"
       cy="33.305279"
       cx="24.475513"
       gradientTransform="matrix(0.61274648,0,0,0.34322181,8.9947566,19.592214)"
       gradientUnits="userSpaceOnUse"
       id="radialGradient4040"
       xlink:href="#linearGradient4143-0"
       inkscape:collect="always" />
    <linearGradient
       id="linearGradient4143-0">
      <stop
         style="stop-color:#2a4376;stop-opacity:0.78431374"
         offset="0"
         id="stop4145-4" />
      <stop
         style="stop-color:#375691;stop-opacity:0.12941177"
         offset="1"
         id="stop4147-3" />
    </linearGradient>
    <radialGradient
       id="radial0-2"
       gradientUnits="userSpaceOnUse"
       cx="6.7729998"
       cy="5.927"
       r="0.56400001"
       gradientTransform="matrix(3.543307,0,0,3.543307,1.47638e-7,3.77575e-4)">
      <stop
         stop-color="#8eb0c7"
         stop-opacity="1"
         id="stop22-6"
         offset="0"
         style="stop-color:#6b98b5;stop-opacity:1;" />
      <stop
         offset="1"
         stop-color="#8eb0c7"
         stop-opacity="0"
         id="stop24-68"
         style="stop-color:#6a97b6;stop-opacity:0.08474576;" />
    </radialGradient>
    <linearGradient
       inkscape:collect="always"
       xlink:href="#linearGradient4174-9"
       id="linearGradient4180"
       x1="24.475513"
       y1="36.93475"
       x2="24.475513"
       y2="29.489677"
       gradientUnits="userSpaceOnUse"
       gradientTransform="matrix(0.46685441,0,0,0.34385152,12.573498,8.3279325)" />
    <linearGradient
       id="linearGradient4174-9">
      <stop
         style="stop-color:#225d6c;stop-opacity:1"
         offset="0"
         id="stop4176-6" />
      <stop
         style="stop-color:#2b7a8f;stop-opacity:0"
         offset="1"
         id="stop4178-1" />
    </linearGradient>
    <radialGradient
       inkscape:collect="always"
       xlink:href="#radial0-2"
       id="radialGradient4037"
       gradientUnits="userSpaceOnUse"
       gradientTransform="matrix(2.2145672,0,0,2.2145672,9.2499978,10.125234)"
       cx="6.7729998"
       cy="5.927"
       r="0.56400001" />
    <radialGradient
       inkscape:collect="always"
       xlink:href="#radial0-2"
       id="radialGradient4039"
       gradientUnits="userSpaceOnUse"
       gradientTransform="matrix(0.75000009,0,0,0.75000009,19.250001,13.280977)"
       cx="6"
       cy="17.292"
       r="1" />
  </defs>
  <g
     id="g21">
    <path
       d="m 36.31 5 c 5.859 4.062 9.688 10.831 9.688 18.5 c 0 12.426 -10.07 22.5 -22.5 22.5 c -7.669 0 -14.438 -3.828 -18.5 -9.688 c 1.037 1.822 2.306 3.499 3.781 4.969 c 4.085 3.712 9.514 5.969 15.469 5.969 c 12.703 0 23 -10.298 23 -23 c 0 -5.954 -2.256 -11.384 -5.969 -15.469 c -1.469 -1.475 -3.147 -2.744 -4.969 -3.781 z m 4.969 3.781 c 3.854 4.113 6.219 9.637 6.219 15.719 c 0 12.703 -10.297 23 -23 23 c -6.081 0 -11.606 -2.364 -15.719 -6.219 c 4.16 4.144 9.883 6.719 16.219 6.719 c 12.703 0 23 -10.298 23 -23 c 0 -6.335 -2.575 -12.06 -6.719 -16.219 z"
       opacity="0.05"
       id="path23" />
    <path
       d="m 41.28 8.781 c 3.712 4.085 5.969 9.514 5.969 15.469 c 0 12.703 -10.297 23 -23 23 c -5.954 0 -11.384 -2.256 -15.469 -5.969 c 4.113 3.854 9.637 6.219 15.719 6.219 c 12.703 0 23 -10.298 23 -23 c 0 -6.081 -2.364 -11.606 -6.219 -15.719 z"
       opacity="0.1"
       id="path25" />
    <path
       d="m 31.25 2.375 c 8.615 3.154 14.75 11.417 14.75 21.13 c 0 12.426 -10.07 22.5 -22.5 22.5 c -9.708 0 -17.971 -6.135 -21.12 -14.75 a 23 23 0 0 0 44.875 -7 a 23 23 0 0 0 -16 -21.875 z"
       opacity="0.2"
       id="path27" />
  </g>
  <g
     id="g29"
     style="fill:#ffeeaa">
    <path
       d="m 24 1 c 12.703 0 23 10.297 23 23 c 0 12.703 -10.297 23 -23 23 -12.703 0 -23 -10.297 -23 -23 0 -12.703 10.297 -23 23 -23 z"
       fill="url(#linearGradient3764)"
       fill-opacity="1"
       id="path31"
       style="fill:url(#linearGradient3046);fill-opacity:1.0" />
  </g>
  <g
     id="g33" />
  <g
     id="g55">
    <path
       d="m 40.03 7.531 c 3.712 4.084 5.969 9.514 5.969 15.469 0 12.703 -10.297 23 -23 23 c -5.954 0 -11.384 -2.256 -15.469 -5.969 4.178 4.291 10.01 6.969 16.469 6.969 c 12.703 0 23 -10.298 23 -23 0 -6.462 -2.677 -12.291 -6.969 -16.469 z"
       opacity="0.1"
       id="path57" />
  </g>
  <g
     id="g4177">
    <g
       id="g4125">
      <g
         id="g3840"
         transform="matrix(0.68178719,0,0,0.69230773,8.0467251,13.153845)" />
      <g
         transform="matrix(0.42306065,0,0,0.42309478,19.346756,10.768588)"
         id="g3127">
        <g
           clip-path="url(#clipPath-070777050)"
           id="g3129">
          <!-- color: #7ec1ee -->
          <g
             id="g3131" />
        </g>
      </g>
      <g
         id="g4111"
         transform="translate(0,1)">
        <g
           id="g4107" />
      </g>
    </g>
  </g>
  <g
     id="g6199" />
  <path
     sodipodi:nodetypes="ssccscsscsscsssscccss"
     inkscape:connector-curvature="0"
     id="path3816"
     d="m 21.53125,13 c -0.48,0 -0.94925,0.15575 -1.40625,0.46875 -0.457,0.313 -0.7625,0.699 -0.9375,1.125 L 18.5,17 15.46875,17 c -0.957,0 -1.7615,0.34 -2.4375,1 C 12.35125,18.664 12,19.47325 12,20.40625 L 12,31.625 c 0,0.934 0.35225,1.715 1.03125,2.375 0.676,0.66 1.4795,1 2.4375,1 l 19.0625,0 c 0.957,0 1.79275,-0.344 2.46875,-1 0.676,-0.664 1,-1.445 1,-2.375 L 38,20.40625 C 38,19.47225 37.676,18.664 37,18 36.324,17.336 35.48825,17 34.53125,17 L 31.5,17 30.8125,14.59375 c -0.168,-0.43 -0.4795,-0.809 -0.9375,-1.125 C 29.418,13.15575 28.94475,13 28.46875,13 Z"
     style="fill:#000000;fill-opacity:0.11764706;fill-rule:nonzero;stroke:none" />
  <g
     id="g4247"
     transform="translate(0,-1)">
    <path
       sodipodi:nodetypes="ssccscsscsscsssscccss"
       inkscape:connector-curvature="0"
       id="path55"
       d="m 20.53125,13 c -0.48,0 -0.94925,0.15575 -1.40625,0.46875 -0.457,0.313 -0.7625,0.699 -0.9375,1.125 L 17.5,17 14.46875,17 c -0.957,0 -1.7615,0.34 -2.4375,1 C 11.35125,18.664 11,19.47325 11,20.40625 L 11,31.625 c 0,0.934 0.35225,1.715 1.03125,2.375 0.676,0.66 1.4795,1 2.4375,1 l 19.0625,0 c 0.957,0 1.79275,-0.344 2.46875,-1 0.676,-0.664 1,-1.445 1,-2.375 L 37,20.40625 C 37,19.47225 36.676,18.664 36,18 35.324,17.336 34.48825,17 33.53125,17 L 30.5,17 29.8125,14.59375 c -0.168,-0.43 -0.4795,-0.809 -0.9375,-1.125 C 28.418,13.15575 27.94475,13 27.46875,13 Z"
       style="fill:#484848;fill-opacity:1;fill-rule:nonzero;stroke:none" />
    <path
       d="m 33,26 c 0,4.417143 -3.582857,8 -8,8 -4.417143,0 -8,-3.582857 -8,-8 0,-4.417144 3.582857,-8.000001 8,-8.000001 4.417143,0 8,3.582857 8,8.000001 m 0,0"
       id="path4041"
       inkscape:connector-curvature="0"
       style="fill:#000000;fill-opacity:0.0996016;fill-rule:nonzero;stroke:none" />
    <path
       style="fill:#2f4f61;fill-opacity:1;fill-rule:nonzero;stroke:none"
       inkscape:connector-curvature="0"
       id="path83"
       d="M 31.999999,24.999999 C 31.999999,29.417455 28.417454,33 24.000001,33 19.582546,33 16,29.417455 16,24.999999 16,20.582545 19.582546,17 24.000001,17 c 4.417453,0 7.999998,3.582545 7.999998,7.999999 m 0,0" />
    <path
       id="path85"
       d="m 24,20 c -2.76125,0 -5,2.238749 -5,5 0,2.76125 2.23875,5 5,5 2.76125,0 5,-2.23875 5,-5 0,-2.761251 -2.23875,-5 -5,-5 z m 0,1 c 2.208667,0 4,1.792 4,4 0,2.208667 -1.792,4 -4,4 -2.208667,0 -4,-1.792 -4,-4 0,-2.208667 1.792,-4 4,-4 z"
       style="fill:#53687d;fill-opacity:1;fill-rule:nonzero;stroke:none"
       inkscape:connector-curvature="0" />
    <path
       sodipodi:nodetypes="sscscss"
       inkscape:connector-curvature="0"
       id="path4091"
       d="m 24,29.06667 c -1.932994,0 -3.5,0.870071 -3.5,1.952816 0,0.515742 0.353384,0.99016 0.934656,1.340168 0.83966,0.281594 1.743746,0.440346 2.684667,0.440346 0.718553,0 1.424974,-0.09986 2.088063,-0.268034 C 26.985247,32.172384 27.5,31.628533 27.5,31.019486 27.5,29.936741 25.932994,29.06667 24,29.06667 Z"
       style="fill:url(#radialGradient4040);fill-opacity:1;fill-rule:nonzero;stroke:none" />
    <path
       inkscape:connector-curvature="0"
       style="fill:url(#radialGradient4037);fill-rule:nonzero;stroke:none"
       id="path89"
       d="m 25.5,23.25 c 0,0.690626 -0.559376,1.25 -1.25,1.25 -0.690626,0 -1.25,-0.559374 -1.25,-1.25 0,-0.690626 0.559374,-1.250001 1.25,-1.250001 0.690624,0 1.25,0.559375 1.25,1.250001 m 0,0" />
    <path
       inkscape:connector-curvature="0"
       style="fill:url(#radialGradient4039);fill-rule:nonzero;stroke:none"
       id="path91"
       d="M 24.5,26.250001 C 24.5,26.663251 24.163251,27 23.750001,27 23.336751,27 23,26.663251 23,26.250001 23,25.836751 23.336751,25.5 23.750001,25.5 24.163251,25.5 24.5,25.836751 24.5,26.250001 m 0,0" />
    <ellipse
       ry="1"
       rx="2.1333332"
       cy="21.34"
       cx="24"
       style="fill:#3d7569;fill-opacity:0.58565734;fill-rule:nonzero;stroke:none"
       id="path4168" />
    <ellipse
       ry="1.12"
       rx="2.6666665"
       cy="19.780001"
       cx="24"
       id="path4172"
       style="fill:url(#linearGradient4180);fill-opacity:1;fill-rule:nonzero;stroke:none" />
  </g>
</svg>

<svg xmlns="http://www.w3.org/2000/svg" xmlns:xlink="http://www.w3.org/1999/xlink" viewBox="0 0 48 48"><defs><linearGradient id="linearGradient3046" y1="1" x2="0" y2="47" gradientUnits="userSpaceOnUse"><stop stop-color="#ff8275" stop-opacity="1"/><stop offset="1" stop-color="#ff7061" stop-opacity="1"/></linearGradient><clipPath id="clipPath-070777050"><g transform="translate(0,-1004.3622)"><path d="m -24 13 c 0 1.105 -0.672 2 -1.5 2 -0.828 0 -1.5 -0.895 -1.5 -2 0 -1.105 0.672 -2 1.5 -2 0.828 0 1.5 0.895 1.5 2 z" transform="matrix(15.333333,0,0,11.5,414.99999,878.8622)" fill="#1890d0"/></g></clipPath><radialGradient r="5.712" cy="33.31" cx="24.476" gradientTransform="matrix(0.61274648,0,0,0.34322181,8.9947566,19.592214)" gradientUnits="userSpaceOnUse" id="radialGradient4040"><stop stop-color="#2a4376" stop-opacity="0.784"/><stop offset="1" stop-color="#375691" stop-opacity="0.129"/></radialGradient><radialGradient id="radial0-2" gradientUnits="userSpaceOnUse" cx="6.773" cy="5.927" r="0.564" gradientTransform="matrix(3.543307,0,0,3.543307,1.47638e-7,3.77575e-4)"><stop stop-color="#6b98b5" stop-opacity="1"/><stop offset="1" stop-color="#6a97b6" stop-opacity="0.085"/></radialGradient><linearGradient id="linearGradient4180" y1="36.935" x2="0" y2="29.49" gradientUnits="userSpaceOnUse" gradientTransform="matrix(0.46685441,0,0,0.34385152,12.573498,8.3279325)"><stop stop-color="#225d6c" stop-opacity="1"/><stop offset="1" stop-color="#2b7a8f" stop-opacity="0"/></linearGradient><radialGradient xlink:href="#radial0-2" id="radialGradient4037" gradientUnits="userSpaceOnUse" gradientTransform="matrix(2.2145672,0,0,2.2145672,9.2499978,10.125234)" cx="6.773" cy="5.927" r="0.564"/><radialGradient xlink:href="#radial0-2" id="radialGradient4039" gradientUnits="userSpaceOnUse" gradientTransform="matrix(0.75000009,0,0,0.75000009,19.250001,13.280977)" cx="6" cy="17.292" r="1"/></defs><g><path d="m 36.31 5 c 5.859 4.062 9.688 10.831 9.688 18.5 c 0 12.426 -10.07 22.5 -22.5 22.5 c -7.669 0 -14.438 -3.828 -18.5 -9.688 c 1.037 1.822 2.306 3.499 3.781 4.969 c 4.085 3.712 9.514 5.969 15.469 5.969 c 12.703 0 23 -10.298 23 -23 c 0 -5.954 -2.256 -11.384 -5.969 -15.469 c -1.469 -1.475 -3.147 -2.744 -4.969 -3.781 z m 4.969 3.781 c 3.854 4.113 6.219 9.637 6.219 15.719 c 0 12.703 -10.297 23 -23 23 c -6.081 0 -11.606 -2.364 -15.719 -6.219 c 4.16 4.144 9.883 6.719 16.219 6.719 c 12.703 0 23 -10.298 23 -23 c 0 -6.335 -2.575 -12.06 -6.719 -16.219 z" opacity="0.05"/><path d="m 41.28 8.781 c 3.712 4.085 5.969 9.514 5.969 15.469 c 0 12.703 -10.297 23 -23 23 c -5.954 0 -11.384 -2.256 -15.469 -5.969 c 4.113 3.854 9.637 6.219 15.719 6.219 c 12.703 0 23 -10.298 23 -23 c 0 -6.081 -2.364 -11.606 -6.219 -15.719 z" opacity="0.1"/><path d="m 31.25 2.375 c 8.615 3.154 14.75 11.417 14.75 21.13 c 0 12.426 -10.07 22.5 -22.5 22.5 c -9.708 0 -17.971 -6.135 -21.12 -14.75 a 23 23 0 0 0 44.875 -7 a 23 23 0 0 0 -16 -21.875 z" opacity="0.2"/></g><g fill="#fea"><path d="m 24 1 c 12.703 0 23 10.297 23 23 c 0 12.703 -10.297 23 -23 23 -12.703 0 -23 -10.297 -23 -23 0 -12.703 10.297 -23 23 -23 z" fill="url(#linearGradient3046)" fill-opacity="1"/></g><g><path d="m 40.03 7.531 c 3.712 4.084 5.969 9.514 5.969 15.469 0 12.703 -10.297 23 -23 23 c -5.954 0 -11.384 -2.256 -15.469 -5.969 4.178 4.291 10.01 6.969 16.469 6.969 c 12.703 0 23 -10.298 23 -23 0 -6.462 -2.677 -12.291 -6.969 -16.469 z" opacity="0.1"/></g><g><g><g transform="matrix(0.42306065,0,0,0.42309478,19.346756,10.768588)"><g clip-path="url(#clipPath-070777050)"><!-- color: #7ec1ee --></g></g></g></g><path d="m 21.531 13 c -0.48 0 -0.949 0.156 -1.406 0.469 -0.457 0.313 -0.762 0.699 -0.938 1.125 l -0.688 2.406 -3.03 0 c -0.957 0 -1.761 0.34 -2.438 1 c -0.68 0.664 -1.031 1.473 -1.031 2.406 l 0 11.219 c 0 0.934 0.352 1.715 1.031 2.375 0.676 0.66 1.479 1 2.438 1 l 19.06 0 c 0.957 0 1.793 -0.344 2.469 -1 0.676 -0.664 1 -1.445 1 -2.375 l 0 -11.219 c 0 -0.934 -0.324 -1.742 -1 -2.406 -0.676 -0.664 -1.512 -1 -2.469 -1 l -3.03 0 -0.688 -2.406 c -0.168 -0.43 -0.48 -0.809 -0.938 -1.125 c -0.457 -0.313 -0.93 -0.469 -1.406 -0.469" fill="#000" fill-rule="nonzero" stroke="none" fill-opacity="0.118"/><g transform="translate(0,-1)"><path d="m 20.531 13 c -0.48 0 -0.949 0.156 -1.406 0.469 -0.457 0.313 -0.762 0.699 -0.938 1.125 l -0.688 2.406 -3.03 0 c -0.957 0 -1.761 0.34 -2.438 1 c -0.68 0.664 -1.031 1.473 -1.031 2.406 l 0 11.219 c 0 0.934 0.352 1.715 1.031 2.375 0.676 0.66 1.479 1 2.438 1 l 19.06 0 c 0.957 0 1.793 -0.344 2.469 -1 0.676 -0.664 1 -1.445 1 -2.375 l 0 -11.219 c 0 -0.934 -0.324 -1.742 -1 -2.406 -0.676 -0.664 -1.512 -1 -2.469 -1 l -3.03 0 -0.688 -2.406 c -0.168 -0.43 -0.48 -0.809 -0.938 -1.125 c -0.457 -0.313 -0.93 -0.469 -1.406 -0.469" fill="#484848" fill-rule="nonzero" stroke="none" fill-opacity="1"/><path d="m 33 26 c 0 4.417 -3.583 8 -8 8 -4.417 0 -8 -3.583 -8 -8 0 -4.417 3.583 -8 8 -8 4.417 0 8 3.583 8 8 m 0 0" fill="#000" fill-rule="nonzero" stroke="none" fill-opacity="0.1"/><path d="m 32 25 c 0 4.417 -3.583 8 -8 8 -4.417 0 -8 -3.583 -8 -8 0 -4.417 3.583 -8 8 -8 c 4.417 0 8 3.583 8 8 m 0 0" fill="#2f4f61" fill-rule="nonzero" stroke="none" fill-opacity="1"/><path d="m 24 20 c -2.761 0 -5 2.239 -5 5 0 2.761 2.239 5 5 5 2.761 0 5 -2.239 5 -5 0 -2.761 -2.239 -5 -5 -5 z m 0 1 c 2.209 0 4 1.792 4 4 0 2.209 -1.792 4 -4 4 -2.209 0 -4 -1.792 -4 -4 0 -2.209 1.792 -4 4 -4 z" fill="#53687d" fill-rule="nonzero" stroke="none" fill-opacity="1"/><path d="m 24 29.07 c -1.933 0 -3.5 0.87 -3.5 1.953 0 0.516 0.353 0.99 0.935 1.34 0.84 0.282 1.744 0.44 2.685 0.44 0.719 0 1.425 -0.1 2.088 -0.268 c 0.778 -0.36 1.293 -0.903 1.293 -1.512 0 -1.083 -1.567 -1.953 -3.5 -1.953" fill="url(#radialGradient4040)" fill-rule="nonzero" stroke="none" fill-opacity="1"/><path d="m 25.5 23.25 c 0 0.691 -0.559 1.25 -1.25 1.25 -0.691 0 -1.25 -0.559 -1.25 -1.25 0 -0.691 0.559 -1.25 1.25 -1.25 0.691 0 1.25 0.559 1.25 1.25 m 0 0" fill="url(#radialGradient4037)" fill-rule="nonzero" stroke="none"/><path d="m 24.5 26.25 c 0 0.413 -0.337 0.75 -0.75 0.75 -0.413 0 -0.75 -0.337 -0.75 -0.75 0 -0.413 0.337 -0.75 0.75 -0.75 0.413 0 0.75 0.337 0.75 0.75 m 0 0" fill="url(#radialGradient4039)" fill-rule="nonzero" stroke="none"/><ellipse ry="1" rx="2.133" cy="21.34" cx="24" fill="#3d7569" fill-rule="nonzero" stroke="none" fill-opacity="0.586"/><ellipse ry="1.12" rx="2.667" cy="19.78" cx="24" fill="url(#linearGradient4180)" fill-rule="nonzero" stroke="none" fill-opacity="1"/></g></svg>
